X:071
T:Turks March TS.071
M:C|
L:1/8
Q:1/2=70
S:Thomas Sands’ MS,1810,Lincolnshire
R:march
O:England;Lincolnshire
Z:vmp.Ruairidh Greig, 2011
K:G
GA|B2G2G2(AB)|c2A2A2(dc)|B2(AG)F2G2|(AG)(FE)D2(GA)|
B2G2G2AB|c2A2A2dc|BAGAD2″tr”F2|”cr.in ms”G6:|
|:Bc|dcded2e=f|e2c2c4|edef efga|f2d2″tr”d3c|
B2G2G2AB|c2A2A2dc|B2(AG)F2G2|(AG)(FE)D2GA|
B2G2G2AB|c2A2A2dc|BAGAD2″tr”F2|”cr.inms”G6:|]

